X: 4147
T: Blue Eyed Stranger
R: reel
M: 4/4
K: Gmajor
G3 D D2 D2|EFGB A2 GA|B2 d2 BAGF|E2 F2 E/F/E D2||
G3 D D2 D2|EFGB A2 GA|B2 d2 BAGF|E2 F2 G4||
GABc d2 d2|edcB A2 A2|GABc d2 d2|B2 c2 d4||
GABc d2 d2|edcB A2 GA|B2 d2 BAGF|E2 F2 G4||

